!!!COM: Beethoven, Ludwig van
!!!CDT: 1770///-1827///
!!!OTL: Piano Sonata no. 27 in E minor
!!!ODT: 1814///
!!!ODE: au Comte Lichnowsky
!!!OPS: 90
!!!OMV: 2
!!!OMD@@GER: Rondo: Nicht zu geschwind und sehr singbar vorgetragen
!!!OMD@ENG: Not too swiftly and conveyed in a singing manner
**kern	**kern	**dynam
*staff2	*staff1	*staff1/2
*clefF4	*clefG2	*clefG2
*k[f#c#g#d#]	*k[f#c#g#d#]	*k[f#c#g#d#]
*E:	*E:	*E:
*M2/4	*M2/4	*M2/4
*MM110	*MM110	*MM110
8r	(16e/LL	p
.	16f#/JJ	.
=1	=1	=1
*	*^	*
8EE/ 8E/	4g#/	16e\LL	.
.	.	16B\	.
8r	.	16e\	.
.	.	16B\JJ	.
4r	8b/L	16g#\LL	.
.	.	16B\	.
.	8a/J	16f#\	.
.	.	16B\JJ	.
=2	=2	=2	=2
8BBB/ 8BB/	8g#/L	16e\LL	.
.	.	16B\	.
8r	8f#/J)	16d#\	.
.	.	16B\JJ	.
4r	8f#/L	16d#\LL	.
.	.	16B\	.
.	8g#'/J	16e\	.
.	.	16B\JJ	.
=3	=3	=3	=3
8CC#/ 8C#/	(8a/L	16e\LL	.
.	.	16B\	.
8r	8cc#/J	16e\	.
.	.	16B\JJ	.
8DD#/ 8D#/L	8b/L	16f#\LL	.
.	.	16B\	.
8BBB/ 8BB/J	8f#/J	16d#\	.
.	.	16B\JJ	.
*	*v	*v	*
=4	=4	=4
16EE\ 16E\LL	4B/ 4e/ 4g#/)	.
16G#\	.	.
16B\	.	.
16A\JJ	.	.
16G#\LL	8r	.
16A\	.	.
16G#\	(16ee\LL	.
16F#\JJ	16ff#\JJ	.
=5	=5	=5
16E\LL	4g#\ 4gg#\	.
16B\	.	.
16BB\	.	.
16B\JJ	.	.
16E\LL	8b\ 8bb\L	.
16B\	.	.
16BB\	8a\ 8aa\J	.
16B\JJ	.	.
=6	=6	=6
16D#\LL	8g#\ 8gg#\L	.
16B\	.	.
16BB\	8f#\ 8ff#\J)	.
16B\JJ	.	.
16D#\LL	8f#'\ (8ff#'\L	.
16B\	.	.
16E#\	8g#'\ 8gg#'\J)	.
16B\JJ	.	.
=7	=7	=7
16F#\LL	8a\ (8aa\L	<
16B\	.	.
16A\	8cc#\ 8ccc#\	.
16B\JJ	.	.
16G#\LL	8b\ 8bb\J)	.
16B\	.	.
16BB\ 16F#\	8dd#'\ 8ddd#'\	p
16A\JJ	.	.
=8	=8	=8
16E\ 16G#\LL	4ee'\ 4eee'\	.
16B\	.	.
16G#\	.	.
16E\JJ	.	.
16D#\LL	8r	.
16B\	.	.
16F#\	(8b\	.
16D#\JJ	.	.
=9	=9	=9
16C#\LL	4a#\	.
16A#\	.	.
16F#\	.	.
16C#\JJ	.	.
16FF#\LL	4ee\	.
16A#\	.	.
16F#\	.	.
16C#\JJ	.	.
=10	=10	=10
16BB\LL	4.dd#\)	.
16B\	.	.
16F#\	.	.
16D#\JJ	.	.
16BB\LL	.	.
16B\	.	.
16C#\	(8an/	.
16An\JJ	.	.
=11	=11	=11
16BB\LL	4g#/	.
16G#\	.	.
16E\	.	.
16BB\JJ	.	.
16EE\LL	4ddn\	.
16G#\	.	.
16E\	.	.
16BB\JJ	.	.
=12	=12	=12
16AA\LL	4.cc#\)	.
16A\	.	.
16E\	.	.
16C#\JJ	.	.
16AA\LL	.	.
16E\	.	.
16AA\	(8cc#\	<
16E\JJ	.	.
=13	=13	=13
16GG#\LL	8b#\L	.
16E\	.	.
16AA\	8cc#\J)	.
16E\JJ	.	.
16AA\LL	(8c#'/ 8e'/ 8a'/L	.
16E\	.	.
16BB\	8Bn'/) 8e'/ 8g#'/J	.
16E\JJ	.	.
=14	=14	=14
*	*^	*
16C#\LL	(8g#/	4A#\ 4e\	.
16E\	.	.	.
16C#\	4f#/)	.	.
16E\JJ	.	.	.
16Cn\LL	.	4An\ 4e\	.
16E\	.	.	.
16C\	(8f#/	.	.
16E\JJ	.	.	.
=15	=15	=15	=15
16BB\LL	8f#/L	8A\ 8d#\	.
16F#\	.	.	.
16BB\	8bn/	4d#\	.
16F#\ 16A\JJ	.	.	.
16BB\LL	8a#/	.	.
16F#\ 16A\	.	.	.
16BB\	8b/J	8d#\	.
16F#\ 16A\JJ	.	.	.
*	*v	*v	*
=16	=16	=16
16E\ 16G#\LL	4e/)	.
16B\	.	.
16G#\	.	.
16E\JJ	.	.
16D#\LL	8r	.
16B\	.	.
16F#\	8b\ (8bb\	.
16D#\JJ	.	.
=17	=17	=17
16C#\LL	4a#\ 4aa#\	.
16A#\	.	.
16F#\	.	.
16C#\JJ	.	.
16FF#\LL	4ee\ 4eee\	.
16A#\	.	.
16F#\	.	.
16C#\JJ	.	.
=18	=18	=18
16BB\LL	4.dd#\ 4.ddd#\)	.
16B\	.	.
16F#\	.	.
16D#\JJ	.	.
16BB\LL	.	.
16B\	.	.
16C#\	8an\ (8aan\	.
16An\JJ	.	.
=19	=19	=19
16BB\LL	4g#\ 4gg#\	.
16G#\	.	.
16E\	.	.
16BB\JJ	.	.
16EE\LL	4ddn\ 4dddn\	.
16G#\	.	.
16E\	.	.
16BB\JJ	.	.
=20	=20	=20
16AA\LL	4.cc#\ 4.ccc#\)	.
16A\	.	.
16E\	.	.
16C#\JJ	.	.
16AA\LL	.	.
16E\	.	.
16AA\	8cc#\ (8ccc#\	<
16E\JJ	.	.
=21	=21	=21
16GG#\LL	8b#\ 8bb#\L	.
16E\	.	.
16AA\	8cc#\ 8ccc#\)	.
16E\JJ	.	.
16AA\ 16C#\LL	8a'\ (8aa'\	.
16E\	.	.
16BB\ 16E\	8g#'\ 8gg#'\J)	.
16G#\JJ	.	.
=22	=22	=22
16C#\ 16E\LL	8g#\ (8gg#\	.
16A#\	.	.
16C#\ 16E\	4f#\ 4ff#\)	.
16A#\JJ	.	.
16Cn\ 16E\LL	.	.
16An\	.	.
16C\ 16E\	8f#\ (8ff#\	.
16A\JJ	.	.
=23	=23	=23
16BB\ 16D#\LL	8f#\ 8ff#\L	p
16A\	.	.
16BB\ 16D#\	8b\ 8bb\	.
16A\JJ	.	.
16BB\ 16D#\LL	8a#\ 8aa#\	.
16A\	.	.
16BB\ 16D#\	8b\ 8bb\J	.
16A\JJ	.	.
=24	=24	=24
16E\ 16G#\LL	4e\ 4ee\)	.
16E\	.	.
16D#\	.	.
16C#\JJ	.	.
16BB/LL	8r	.
16AA/	.	.
16GG#/	(16e/LL	.
16FF#/JJ	16f#/JJ	.
=25	=25	=25
*	*^	*
8EE'/	4g#/	16e\LL	.
.	.	16B\	.
8r	.	16e\	.
.	.	16B\JJ	.
4r	8b/L	16g#\LL	.
.	.	16B\	.
.	8a/J	16f#\	.
.	.	16B\JJ	.
=26	=26	=26	=26
8BBB/	8g#/L	16e\LL	.
.	.	16B\	.
8r	8f#/J)	16d#\	.
.	.	16B\JJ	.
4r	(8f#'/L	16d#\LL	.
.	.	16B\	.
.	8g#'/J)	16e\	.
.	.	16B\JJ	.
=27	=27	=27	=27
8CC#/	(8a/L	16e\LL	.
.	.	16B\	.
8r	8cc#/J	16e\	.
.	.	16B\JJ	.
8DD#/L	8b/L	16f#\LL	.
.	.	16B\	.
8BBB/J	8f#/J)	16d#\	.
.	.	16B\JJ	.
*	*v	*v	*
=28	=28	=28
8EE/	8B/ 8e/ 8g#/	.
*clefG2	*	*
16e/LL	8r	.
16B/JJ	.	.
.	(ff#q/	.
16e/LL	(16ee\LL)	<
16B/	16dd#\	.
16e/	16ee\	.
16B/JJ	16ff#\JJ	.
=29	=29	=29
.	aaq/	.
16e/LL	16gg#\LL	.
16B/	16ff#\	.
16e/	16gg#\	.
16B/JJ	16aa\JJ	.
16g#/LL	8b\ 8bb\L	>
16B/	.	.
16f#/	8a\ 8aa\J	.
16B/JJ	.	.
=30	=30	=30
16e/LL	8g#\ 8gg#\L	<
16B/	.	.
16d#/	8f#\ 8ff#\J)	.
16B/JJ	.	.
16d#/LL	8f#'\ (8ff#'\L	.
16B/	.	.
16e#/	8g#'\ 8gg#'\J)	.
16B/JJ	.	.
=31	=31	=31
16f#/LL	8a\ (8aa\L	.
16B/	.	.
16a/	8cc#\ 8ccc#\	.
16B/JJ	.	.
16g#/LL	8b\ 8bb\J)	.
16B/	.	.
16f#/	8dd#'\ 8aa'\ 8ddd#'\	f
16B/JJ	.	.
*clefF4	*	*
=32	=32	=32
16e\LL	4ee\ 4gg#\ 4eee\	.
16B\	.	.
16G#\	.	.
16B\JJ	.	.
8E\	8r	.
8r	8e'/ 8g#'/	.
=33	=33	=33
16c#\LL	4.e/ 4.g#/	.
16G#\	.	.
16E\	.	.
16G#\JJ	.	.
8C#\	.	.
8c#'\	8e'/ 8g#'/ 8ee'/	p
=34	=34	=34
16B#\LL	4.d#/ 4.f#/ 4.g#/ 4.dd#/	.
16G#\	.	.
16D#\	.	.
16G#\JJ	.	.
8BB#/	.	.
8B#'\	8d#'/ 8f#'/ 8g#'/	f
=35	=35	=35
16G#\LL	4.d#/ 4.f#/ 4.g#/	.
16D#\	.	.
16BB#\	.	.
16D#\JJ	.	.
8GG#/	.	.
8B#'\	8d#'/ 8f#'/ 8g#'/ 8dd#'/	p
=36	=36	=36
16c#\LL	4.e/ 4.g#/ 4.ee/	.
16G#\	.	.
16E\	.	.
16G#\JJ	.	.
8C#\	.	.
8c#'\	8e'/ 8g#'/	f
=37	=37	=37
16Bn\LL	4.e/ 4.g#/	.
16G#\	.	.
16E\	.	.
16G#\JJ	.	.
8BBn/	.	.
8B'\	8e'/ 8g#'/ 8ee'/	p
=38	=38	=38
16A#\LL	4.e/ 4.f#/ 4.ee/	.
16F#\	.	.
16C#\	.	.
16F#\JJ	.	.
8AA#/	.	.
8AA#'/	8c#'/ 8e'/	f
=39	=39	=39
16GG#/LL	4.B/ 4.e/	.
16EE/	.	.
16BBB/	.	.
16EE/JJ	.	.
8GGG#/	.	.
8GGG#'/ 8GG#'/	8e'/ 8b'/ 8ee'/	.
=40	=40	=40
8FFF#/ 8FF#/	8e/ 8a#/ 8cc#/ 8ee/	.
*clefG2	*	*
(16f#/LL	8r	.
16g#/JJ	.	.
16f#/LL	4r	.
16g#/	.	.
16f#/	.	.
16g#/JJ)	.	.
=41	=41	=41
*^	*	*
16f#/LL	4.A#\ 4.c#\	4.ee\ 4.ccc#\	<
16g#/	.	.	.
16f#/	.	.	.
16g#/JJ	.	.	.
16f#/LL	.	.	.
16g#/	.	.	.
16f#/	8B\ 8d#\	8dd#\ 8bb\	.
16g#/JJ	.	.	.
=42	=42	=42	=42
16f#/LL	8B\ 8d#\L	8dd#\ 8bb\L	>
16g#/	.	.	.
16f#/	8c#\ 8e\	8cc#\ 8aa#\	.
16g#/JJ	.	.	.
16f#/LL	8c#\ 8e\	8cc#\ 8aa#\	.
16g#/	.	.	.
16f#/	8B\ 8d#\J	8dd#\ 8bb\J	.
16g#/JJ	.	.	.
=43	=43	=43	=43
16f#/LL	4.A#\ 4.c#\	4.ee\ 4.ccc#\	<
16g#/	.	.	.
16f#/	.	.	.
16g#/JJ	.	.	.
16f#/LL	.	.	.
16g#/	.	.	.
16f#/	8B\ 8d#\	8dd#\ 8bb\	.
16g#/JJ	.	.	.
=44	=44	=44	=44
16f#/LL	8c#\ 8e\L	8cc#\ 8aa#\L	>
16g#/	.	.	.
16f#/	8A#\ 8c#\	8ee\ 8ccc#\	.
16g#/JJ	.	.	.
16f#/LL	8B\ 8d#\	8dd#\ 8bb\	.
16g#/	.	.	.
16f#/	8c#\ 8e\J	8cc#\ 8aa#\J	.
16g#/JJ	.	.	.
=45	=45	=45	=45
16f#/LL	8d#\	8b\ 8bb\L	pp
16b/	.	.	.
16f#/	8r	8aa#\	.
16b/JJ	.	.	.
16e/LL	4r	8gg#\	.
16b/	.	.	.
16d#/	.	8ff#\J	.
16b/JJ	.	.	.
*v	*v	*	*
=46	=46	=46
16e/LL	8gg#\L	.
16b/	.	.
16f#/	8ff#\	.
16b/JJ	.	.
16g#/LL	8ee\	.
16b/	.	.
16e#/	8dd#\J	.
16b/JJ	.	.
=47	=47	=47
*^	*	*
16f#/LL	2f#\	(4.dd#\	.
16g#/	.	.	.
16a#/	.	.	.
16b/JJ	.	.	.
16a#/LL	.	.	.
16b/	.	.	.
16cc#/	.	16ee\LL	.
16dd#/JJ	.	16ff#\JJ)	.
=48	=48	=48	=48
8a#/	8f#\	8cc#\	.
(16g#/LL	8r	(16ff#\LL	.
16f#/JJ	.	16gg#\JJ	.
16g#/LL	4r	16ff#\LL	.
16f#/	.	16gg#\	.
16g#/	.	16ff#\	.
16f#/JJ)	.	16gg#\JJ)	.
=49	=49	=49	=49
*	*	*8va	*
*	*	*^	*
16g#/LL	(4.A#\ 4.c#\	4.ccc#/ (4.eee/	16ff#\LL	<
16f#/	.	.	16gg#\	.
16g#/	.	.	16ff#\	.
16f#/JJ	.	.	16gg#\JJ	.
16g#/LL	.	.	16ff#\LL	.
16f#/	.	.	16gg#\	.
16g#/	8B\) 8d#\	8bb/ 8ddd#/)	16ff#\	.
16f#/JJ	.	.	16gg#\JJ	.
=50	=50	=50	=50	=50
16g#/LL	(8B\ 8d#\L	8bb/ 8ddd#/L	16ff#\LL	>
16f#/	.	.	16gg#\	.
16g#/	8c#\) 8e\	8aa#/ 8ccc#/	16ff#\	.
16f#/JJ	.	.	16gg#\JJ	.
16g#/LL	(8c#\ 8e\	8aa#/ 8ccc#/	16ff#\LL	.
16f#/	.	.	16gg#\	.
16g#/	8B\) 8d#\J	8bb/ 8ddd#/J	16ff#\	.
16f#/JJ	.	.	16gg#\JJ	.
=51	=51	=51	=51	=51
16g#/LL	(4.A#\ 4.c#\	4.ccc#/ (4.eee/	16ff#\LL	.
16f#/	.	.	16gg#\	.
16g#/	.	.	16ff#\	.
16f#/JJ	.	.	16gg#\JJ	.
16g#/LL	.	.	16ff#\LL	.
16f#/	.	.	16gg#\	.
16g#/	8B\) 8d#\	8bb/ 8ddd#/)	16ff#\	.
16f#/JJ	.	.	16gg#\JJ	.
*v	*v	*	*	*
=52	=52	=52	=52
(16c#/ 16e/LL	(8ccc#/L	16aa#\LL	.
16f#/	.	16ff#\	.
16F#/ 16A#/	8ggg#/	16eee\	.
16f#/JJ	.	16ff#\JJ	.
16G#/ 16B/LL	8fff#/	16ddd#\LL	.
16f#/	.	16ff#\	.
16A#/ 16c#/	8eee/J	16ccc#\	.
16f#/JJ	.	16ff#\JJ	.
=53	=53	=53	=53
16B/ 16d#/LL	8ddd#/L	16bb\LL	>
16f#/	.	16ff#\	.
16G#/ 16B/	8fff#/	16ddd#\	.
16f#/JJ	.	16ff#\JJ	.
16A#/ 16c#/LL	8eee/	16ccc#\LL	.
16f#/	.	16ff#\	.
16B/ 16d#/	8ddd#/J	16bb\	.
16f#/JJ	.	16ff#\JJ	.
=54	=54	=54	=54
16c#/ 16e/LL	8ccc#/L	16aa#\LL	.
16f#/	.	16ff#\	.
16A#/ 16c#/	8eee/	16ccc#\	.
16f#/JJ	.	16ff#\JJ	.
16B/ 16d#/LL	8ddd#/	16bb\LL	.
16f#/	.	16ff#\	.
16c#/ 16e/	8ccc#/J	16aa#\	.
16f#/JJ	.	16ff#\JJ	.
=55	=55	=55	=55
*	*X8va	*X8va	*
16d#/LL	8bb/L	16bb\LL	.
16f#/	.	16ff#\	.
16d#/	8aan/	16aan\	.
16f#/JJ	.	16b#\JJ	.
16d#/LL	8gg#/	16gg#\LL	.
16f#/	.	16b#\	.
16d#/	8gg#/J	16gg#\	.
16f#/JJ	.	16b#\JJ	.
=56	=56	=56	=56
8d#/) 8f#/	16gg#/)	16b#\LL	.
.	8.r	(16g#\	.
8r	.	16a#\	.
.	.	16b#\JJ	.
.	.	dd#q/	.
16r	4r	16cc#\LL	.
(16G#/LL	.	16b#\	.
16A#/	.	16cc#\	.
16B#/JJ	.	16dd#\JJ	.
*	*v	*v	*
=57	=57	=57
16c#/LL)	16ee\LL)	.
(16G#/	(16b#\	.
16A#/	16cc#\	.
16B#/JJ	16dd#\JJ	.
d#q/	ff#q/	.
16c#/LL	16ee\LL	.
16B#/	16dd#\	.
16c#/	16ee\	.
16d#/JJ	16ff#\JJ	.
=58	=58	=58
16e/LL)	16gg#\LL)	.
(16d#/	16ff#\	.
16e/	16ee\	.
16f#/JJ	16dd#\JJ	.
16g#/LL	16ee\LL	.
16f#/	16dd#\	.
16e/	16cc#\	.
16e#/JJ	16gg#\JJ	.
=59	=59	=59
8f#/)	16dd#\LL	.
.	16cc#\	.
8r	16bn\	.
.	16ff#\JJ	.
*clefF4	*	*
8F#\	16cc#\LL	.
.	16b\	.
8r	16a#\	.
.	16ff#\JJ	.
=60	=60	=60
12BB\L	2f#/ 2dd#/ (2ff#/	.
12F#\	.	.
12D#\J	.	.
12BB\L	.	.
12B\	.	.
12F#\J	.	.
=61	=61	=61
12C#\L	4e/ 4cc#/ 4ee/	.
12A#\	.	.
12F#\J	.	.
12D#\L	4d#/ 4b/ 4dd#/	.
12B\	.	.
12F#\J	.	.
=62	=62	=62
*	*^	*
12E\L	4cc#/	4g#\	.
12c#\	.	.	.
12G#\J	.	.	.
12E#\L	[4b/	4g#\	.
12dn\	.	.	.
12G#\J	.	.	.
=63	=63	=63	=63
12F#\L	4b/]	4f#\	.
12d#\	.	.	.
12B\J	.	.	.
12En\L	8a#/L	4f#\	.
12c#\	.	.	.
.	8ff#/J)	.	.
12A#\J	.	.	.
*	*v	*v	*
=64	=64	=64
16D#\LL	2f#/ 2an/ (2ff#/	<
16B\	.	.
16F#\	.	.
16D#\JJ	.	.
16BB\LL	.	.
16F#\	.	.
16D#\	.	.
16BB\JJ	.	.
=65	=65	=65
16C#\LL	4e/ 4a/ 4ee/	.
16A\	.	.
16E\	.	.
16C#\JJ	.	.
16D#\LL	4d#/ 4f#/ 4a/ 4dd#/	.
16B\	.	.
16F#\	.	.
16D#\JJ	.	.
=66	=66	=66
16E\LL	4a/ 4cc#/	.
16c#\	.	.
16A\	.	.
16E\JJ	.	.
16F#\LL	[4d#/ [4a/ [4b/)	<
16B\	.	.
16A\	.	.
16F#\JJ	.	.
=67	=67	=67
16F#\LL	4d#/] 4a/] 4b/]	.
16B\	.	.
16A\	.	.
16F#\JJ	.	.
16Cn\LL	4d#/ 4f#/ 4a/	.
16A\	.	.
16F#\	.	.
16D#\JJ	.	.
=68	=68	=68
16Cn\LL	16a\LL	f
16A\	16dd#\	>
16F#\	16ff#\	.
16D#\JJ	16dd#\JJ	.
16C\LL	16aa\LL	.
16A\	16ddd#\	.
16F#\	16fff#\	.
16D#\JJ	16ddd#\JJ	.
=69	=69	=69
16BB\LL	4aaa\	p
16A\	.	.
16F#\	.	.
16D#\JJ	.	.
16BB\LL	16r	.
16A\	(16d#/LL	.
16G#\	16e/	.
16F#\JJ	16f#/JJ	.
=70	=70	=70
*	*^	*
8EE/ 8E/	4g#/	16e\LL	.
.	.	16B\	.
8r	.	16e\	.
.	.	16B\JJ	.
4r	8b/L	16g#\LL	.
.	.	16B\	.
.	8a/J	16f#\	.
.	.	16B\JJ	.
=71	=71	=71	=71
8BBB/ 8BB/	8g#/L	16e\LL	.
.	.	16B\	.
8r	8f#/J)	16d#\	.
.	.	16B\JJ	.
4r	(8f#'/L	16d#'\LL	.
.	.	16B\	.
.	8g#/J)	16e\	.
.	.	16B\JJ	.
=72	=72	=72	=72
8CC#/ 8C#/	(8a/L	16e\LL	.
.	.	16B\	.
8r	8cc#/J	16e\	.
.	.	16B\JJ	.
8DD#/ 8D#/L	8b/L	16f#\LL	.
.	.	16B\	.
8BBB/ 8BB/J	8f#/J)	16d#\	.
.	.	16B\JJ	.
*	*v	*v	*
=73	=73	=73
16EE\ 16E\LL	4B/ 4e/ 4g#/	.
16G#\	.	.
16B\	.	.
16A\JJ	.	.
16G#\LL	8r	.
16A\	.	.
16G#\	(16ee\LL	.
16F#\JJ	16ff#\JJ	.
=74	=74	=74
16E\LL	4g#\ 4gg#\	.
16B\	.	.
16BB\	.	.
16B\JJ	.	.
16E\LL	8b\ 8bb\L	.
16B\	.	.
16BB\	8a\ 8aa\J	.
16B\JJ	.	.
=75	=75	=75
16D#\LL	8g#\ 8gg#\L	.
16B\	.	.
16BB\	8f#\ 8ff#\J)	.
16B\JJ	.	.
16D#\LL	8f#'\ (8ff#'\L	.
16B\	.	.
16E#\	8g#'\ 8gg#'\J)	.
16B\JJ	.	.
=76	=76	=76
16F#\LL	8a\ (8aa\L	<
16B\	.	.
16A\	8cc#\ 8ccc#\	.
16B\JJ	.	.
16G#\LL	8b\ 8bb\J)	.
16B\	.	.
16BB\ 16F#\	8dd#'\ 8ddd#'\	p
16A\JJ	.	.
=77	=77	=77
16E\ 16G#\LL	4ee\ 4eee\	.
16B\	.	.
16G#\	.	.
16E\JJ	.	.
16D#\LL	8r	.
16B\	.	.
16F#\	(8b\	.
16D#\JJ	.	.
=78	=78	=78
16C#\LL	4a#\	.
16A#\	.	.
16F#\	.	.
16C#\JJ	.	.
16FF#\LL	4ee\	.
16A#\	.	.
16F#\	.	.
16C#\JJ	.	.
=79	=79	=79
16BB\LL	4.dd#'\)	.
16B\	.	.
16F#\	.	.
16D#\JJ	.	.
16BB\LL	.	.
16B\	.	.
16C#\	(8an/	.
16An\JJ	.	.
=80	=80	=80
16BB\LL	4g#/	.
16G#\	.	.
16E\	.	.
16BB\JJ	.	.
16EE\LL	4ddn\	.
16G#\	.	.
16E\	.	.
16BB\JJ	.	.
=81	=81	=81
16AA\LL	4.cc#\)	.
16A\	.	.
16E\	.	.
16C#\JJ	.	.
16AA\LL	.	.
16E\	.	.
16AA\	(8cc#\	<
16E\JJ	.	.
=82	=82	=82
16GG#\LL	8b#\L	.
16E\	.	.
16AA\	8cc#\J)	.
16E\JJ	.	.
16AA\LL	(8c#'/ 8e'/ 8a'/L	.
16E\	.	.
16BB\	8Bn'/) 8e'/ 8g#'/J	.
16E\JJ	.	.
=83	=83	=83
*	*^	*
16C#\LL	(8g#/	4A#\ 4e\	.
16E\	.	.	.
16C#\	4f#/)	.	.
16E\JJ	.	.	.
16Cn\LL	.	4An\ 4e\	.
16E\	.	.	.
16C\	(8f#/	.	.
16E\JJ	.	.	.
=84	=84	=84	=84
16BB\LL	8f#/L	8A\ 8d#\	.
16F#\	.	.	.
16BB\	8b/	4d#\	.
16F#\ 16A\JJ	.	.	.
16BB\LL	8a#/	.	.
16F#\ 16A\	.	.	.
16BB\	8b/J	8d#\	.
16F#\ 16A\JJ	.	.	.
=85	=85	=85	=85
16E\ 16G#\LL	4e/)	4e\	.
16B\	.	.	.
16G#\	.	.	.
16E\JJ	.	.	.
16D#\LL	4r	8r	.
16B\	.	.	.
16F#\	.	8b\ (8bb\	.
16D#\JJ	.	.	.
*	*v	*v	*
=86	=86	=86
16C#\LL	4a#\ 4aa#\	.
16A#\	.	.
16F#\	.	.
16C#\JJ	.	.
16FF#\LL	4ee\ 4eee\	.
16A#\	.	.
16F#\	.	.
16C#\JJ	.	.
=87	=87	=87
16BB\LL	4.dd#\ 4.ddd#\)	.
16B\	.	.
16F#\	.	.
16D#\JJ	.	.
16BB\LL	.	.
16B\	.	.
16C#\	8an\ (8aan\	.
16An\JJ	.	.
=88	=88	=88
16BB\LL	4g#\ 4gg#\	.
16G#\	.	.
16E\	.	.
16BB\JJ	.	.
16EE\LL	4ddn\ 4dddn\	.
16G#\	.	.
16E\	.	.
16BB\JJ	.	.
=89	=89	=89
16AA\LL	4.cc#\ 4.ccc#\)	.
16A\	.	.
16E\	.	.
16C#\JJ	.	.
16AA\LL	.	.
16E\	.	.
16AA\	8cc#\ (8ccc#\	<
16E\JJ	.	.
=90	=90	=90
16GG#\LL	8b#\ 8bb#\L	.
16E\	.	.
16AA\	8cc#\ 8ccc#\)	.
16E\JJ	.	.
16AA\ 16C#\LL	8a'\ (8aa'\	.
16E\	.	.
16BB\ 16E\	8g#\ 8gg#\J)	.
16G#\JJ	.	.
=91	=91	=91
16C#\ 16E\LL	8g#\ (8gg#\	.
16A#\	.	.
16C#\ 16E\	4f#\ 4ff#\)	.
16A#\JJ	.	.
16Cn\ 16E\LL	.	.
16An\	.	.
16C\ 16E\	8f#\ 8ff#\	.
16A\JJ	.	.
=92	=92	=92
16BB\ 16D#\LL	8f#\ (8ff#\L	p
16A\	.	.
16BB\ 16D#\	8b\ 8bb\	.
16A\JJ	.	.
16BB\ 16D#\LL	8a#\ 8aa#\	.
16A\	.	.
16BB\ 16D#\	8b\ 8bb\J	.
16A\JJ	.	.
=93	=93	=93
16E\ 16G#\LL	4e\ 4ee\)	.
16E\	.	.
16D#\	.	.
16C#\JJ	.	.
16BB/LL	8r	.
16AA/	.	.
16GG#/	(16e/LL	.
16FF#/JJ	16f#/JJ	.
=94	=94	=94
*	*^	*
8EE'/	4g#/	16e\LL	.
.	.	16B\	.
8r	.	16e\	.
.	.	16B\JJ	.
4r	8b/L	16g#\LL	.
.	.	16B\	.
.	8a/J	16f#\	.
.	.	16B\JJ	.
=95	=95	=95	=95
8BBB'/	8g#/L	16e\LL	.
.	.	16B\	.
8r	8f#/J	16d#\)	.
.	.	16B\JJ	.
4r	(8f#/L	16d#\LL	.
.	.	16B\	.
.	8g#/J)	16e\	.
.	.	16B\JJ	.
=96	=96	=96	=96
8CC#/	(8a/L	16e\LL	.
.	.	16B\	.
8r	8cc#/J	16e\	.
.	.	16B\JJ	.
8DD#'/L	8b/L	16f#\LL	.
.	.	16B\	.
8BBB'/J	8f#/J)	16d#\	.
.	.	16B\JJ	.
*	*v	*v	*
=97	=97	=97
8EE'/	8B/ 8e/ 8g#/	.
*clefG2	*	*
16e/LL	8r	.
16B/JJ	.	.
.	(ff#q/	.
16e/LL	(16ee\LL)	<
16B/	16dd#\	.
16e/	16ee\	.
16B/JJ	16ff#\JJ	.
=98	=98	=98
.	aaq/	.
16e/LL	16gg#\LL	.
16B/	16ff#\	.
16e/	16gg#\	.
16B/JJ	16aa\JJ	.
16g#/LL	8b\ 8bb\L	>
16B/	.	.
16f#/	8a\ 8aa\J	.
16B/JJ	.	.
=99	=99	=99
16e/LL	8g#\ 8gg#\L	<
16B/	.	.
16d#/	8f#\ 8ff#\J)	.
16B/JJ	.	.
16d#/LL	8f#'\ (8ff#'\L	.
16B/	.	.
16e#/	8g#'\ 8gg#'\J)	.
16B/JJ	.	.
=100	=100	=100
16f#/LL	8a\ (8aa\L	.
16B/	.	.
16a/	8cc#\ 8ccc#\	.
16B/JJ	.	.
16g#/LL	8b\ 8bb\J)	.
16B/	.	.
16f#/	8dd#'\ 8aa'\ 8ddd#'\	f
16B/JJ	.	.
*clefF4	*	*
=101	=101	=101
*	*^	*
16e\LL	4r	4ee'\ 4gg#'\ 4eee'\	.
16B\	.	.	.
16G#\	.	.	.
16B\JJ	.	.	.
16E\LL	8r	8r	.
16B\	.	.	.
16BB\	(8g#/	8e\	p
16B\JJ	.	.	.
=102	=102	=102	=102
16F#\LL	8a/L	4d#\	.
16B\	.	.	.
16A\	8cc#/	.	.
16B\JJ	.	.	.
16G#\LL	8b/J)	8e\	.
16B\	.	.	.
16F#\	8dd#/	8a\	.
16B\JJ	.	.	.
=103	=103	=103	=103
16E\LL	4.ee/	8g#\	.
16B\	.	.	.
16e\	.	4gn\	.
16B\JJ	.	.	.
16e\LL	.	.	.
16B\	.	.	.
16e\	8r	(8ggn\	.
16B\JJ	.	.	.
*clefG2	*	*	*
*	*v	*v	*
=104	=104	=104
16f#/LL	8aa\L	<
16B/	.	.
16a/	8cccn\	.
16B/JJ	.	.
16gn/LL	8bb\J)	.
16B/	.	.
16f#/	8dd#'\ 8aa'\ 8ddd#'\	f
16B/JJ	.	.
*clefF4	*	*
=105	=105	=105
*k[f#]	*k[f#]	*k[f#]
16e\LL	4ee\ 4gg\ 4eee\	.
16B\	.	.
16G\	.	.
16B\JJ	.	.
16E\LL	8r	.
16B\	.	.
16BB\	(8g\	p
16B\JJ	.	.
=106	=106	=106
16F#\LL	8a\L	.
16B\	.	.
16A\	8cc\	.
16B\JJ	.	.
16G\LL	8b\J)	.
16B\	.	.
16F#\	8a'\ 8dd#'\	.
16B\JJ	.	.
=107	=107	=107
16E\LL	8g'\ 8ee'\L	.
16e\	.	.
16Dn\	8ee'\ 8gg'\	.
16dn\JJ	.	.
16C\LL	8ee'\ 8ccc'\	.
16c\	.	.
16BB\	8ee'\ 8ccc'\J	.
16B\JJ	.	.
=108	=108	=108
16AA\LL	8ee'\ 8ccc'\L	.
16A\	.	.
16GG\	8aa'\ 8ccc'\	.
16G\JJ	.	.
16FFn\LL	8ddd'\ 8fffn'\	.
16Fn\	.	.
16EE\	8ddd'\ 8fff'\J	.
16E\JJ	.	.
=109	=109	=109
*k[]	*k[]	*k[]
16DD/LL	8ddd\ 8fff\L	.
16D/	.	.
16CC/	8ddd\ 8fff\	.
16C/JJ	.	.
16BBB/LL	8ddd\ 8fff\	.
16BB/	.	.
16AAA/	8ddd\ 8fff\J	.
16AA/JJ	.	.
=110	=110	=110
16GGG/LL	[2ddd\ [2fff\	f
16GG/	.	.
16BBB/	.	.
16BB/JJ	.	.
16DD/LL	.	.
16D/	.	.
16FF#/	.	.
16F#/JJ	.	.
=111	=111	=111
16GG\LL	2ddd\_ 2fff\_	.
16G\	.	.
16BB\	.	.
16B\JJ	.	.
16D\LL	.	.
16d\	.	.
16F#\	.	.
16f#\JJ	.	.
*clefG2	*	*
=112	=112	=112
16G/LL	8ddd\] 8fff\]	.
16g/	.	.
16A/	4ddd\ 4fff\	.
16a/JJ	.	.
16B/LL	.	.
16b/	.	.
16c/	8ccc\ 8eee\	>
16cc/JJ	.	.
=113	=113	=113
16f/LL	8ddd'\L	pp
16cc/	.	.
16f#/	8dd'\ 8aa'\	.
16cc/JJ	.	.
16g/LL	8ee'\ 8gg'\J	.
16cc/JJ	.	.
8G/	16b\ 16dd\ 16gg\LL	.
.	16g\JJ	.
*clefF4	*	*
=114	=114	=114
12C\L	2g\ 2ee\ 2gg\	.
12G\	.	.
12E\J	.	.
12C\L	.	.
12c\	.	.
12G\J	.	.
=115	=115	=115
12D\L	4f\ 4dd\ 4ff\	.
12B\	.	.
12G\J	.	.
12E\L	4g\ 4cc\ 4ee\	.
12c\	.	.
12G\J	.	.
=116	=116	=116
12F\L	4a\ 4dd\	.
12d\	.	.
12A\J	.	.
12F#\L	4a\ [4cc\	.
12e-\	.	.
12c\J	.	.
=117	=117	=117
*	*^	*
12G\L	4cc/]	4g\	.
12en\	.	.	.
12c\J	.	.	.
12G\L	8b/L	4g\	.
12f\	.	.	.
.	8gg/J	.	.
12B\ 12d\J	.	.	.
*	*v	*v	*
=118	=118	=118
16C\ 16c\LL	2g\ 2ee-\ 2gg\	<
16G\	.	.
16E-\	.	.
16G\JJ	.	.
16C\LL	.	.
16c\	.	.
16G\	.	.
16C\JJ	.	.
=119	=119	=119
16D\LL	4f\ 4dd\ 4ff\	.
16B\	.	.
16G\	.	.
16D\JJ	.	.
16E-\LL	4e-\ 4g\ 4cc\ 4ee-\	.
16c\	.	.
16G\	.	.
16E-\JJ	.	.
=120	=120	=120
*	*^	*
16F\LL	4dd/	4a-\	.
16d\	.	.	.
16A-\	.	.	.
16F\JJ	.	.	.
16F#\LL	[4cc/	4an\	.
16e-\	.	.	.
16c\	.	.	.
16F#\JJ	.	.	.
=121	=121	=121	=121
16G\LL	4cc/]	4g\	.
16e-\	.	.	.
16c\	.	.	.
16G\JJ	.	.	.
16G#\LL	8b#/L	4f#\	.
16d#\	.	.	.
16B#\	8gg#/J	.	.
16d#\JJ	.	.	.
*	*v	*v	*
=122	=122	=122
12C#\ 12c#\L	2g#\ 2ee\ 2gg#\	p
12G#\	.	.
12E\J	.	.
12C#\L	.	.
12c#\	.	.
12G#\J	.	.
=123	=123	=123
12D#\L	4f#\ 4dd#\ 4ff#\	.
12B#\	.	.
12G#\J	.	.
12E\L	4g#\ 4cc#\ 4ee\	.
12c#\	.	.
12G#\J	.	.
=124	=124	=124
*k[f#c#g#d#]	*k[f#c#g#d#]	*k[f#c#g#d#]
*	*^	*
12F#\L	4dd#/	4a\	.
12d#\	.	.	.
12A\J	.	.	.
12F##\L	[4cc#/	4a#\	.
12e\	.	.	.
12c#\J	.	.	.
=125	=125	=125	=125
12G#\L	4cc#/]	4g#\	.
12e\	.	.	.
12c#\J	.	.	.
16G#\LL	8b#/L	4g#\	.
16d#\	.	.	.
16B#\	8gg#/J	.	.
16d#\JJ	.	.	.
*	*v	*v	*
=126	=126	=126
16C#\ 16c#\LL	2g#\ 2ee#\ 2gg#\	<
16G#\	.	.
16E#\	.	.
16G#\JJ	.	.
16C#\LL	.	.
16c#\	.	.
16G#\	.	.
16C#\JJ	.	.
=127	=127	=127
16D#\LL	4f#\ 4dd#\ 4ff#\	.
16B#\	.	.
16G#\	.	.
16D#\JJ	.	.
16E#\LL	4e#\ 4g#\ 4cc#\ 4ee#\	.
16c#\	.	.
16G#\	.	.
16E#\JJ	.	.
=128	=128	=128
16F#\LL	4an\ 4dd#\	.
16c#\	.	.
16A\	.	.
16F#\JJ	.	.
16F#\LL	[4a\ 4cc#\	.
16c#\	.	.
16A\	.	.
16F#\JJ	.	.
=129	=129	=129
16F#\LL	4a\] 4b#\	.
16c#\	.	.
16A\	.	.
16F#\JJ	.	.
16En\LL	8a\ 8cc#\L	.
16c#\	.	.
16A\	8ff#\ 8aa\J	.
16E\JJ	.	.
=130	=130	=130
8D#\ 8Bn\	[2a\ [2ff#\ [2aa\	f
16A\LL	.	.
16cn\JJ	.	.
16B\LL	.	.
16A#\	.	.
16B\	.	.
16F#\JJ	.	.
=131	=131	=131
16D#\LL	2a\] 2ff#\] 2aa\]	.
16C#\	.	.
16D#\	.	.
16BB\JJ	.	.
8D#'\L	.	.
8F#\J	.	.
=132	=132	=132
8r	[2dd#\ [2ff#\ [2aa\ [2ddd#\	f
16A\LL	.	.
16cn\JJ	.	.
16B\LL	.	.
16A#\	.	.
16B\	.	.
16F#\JJ	.	.
=133	=133	=133
16D#\LL	2dd#\] 2ff#\] 2aa\] 2ddd#\]	.
16C#\	.	.
16D#\	.	.
16BB\JJ	.	.
8D#'\L	.	.
8F#'\J	.	.
=134	=134	=134
8r	[2ff#\ [2aa\ [2ddd#\ [2fff#\	f
16A\LL	.	.
16cn\JJ	.	.
16B\LL	.	.
16A#\	.	.
16B\	.	.
16F#\JJ	.	.
=135	=135	=135
16D#\LL	2ff#\] 2aa\] 2ddd#\] 2fff#\]	.
16C#\	.	.
16D#\	.	.
16BB\JJ	.	.
16D#\LL	.	.
16C#\	.	.
16D#\	.	.
16F#\JJ	.	.
=136	=136	=136
8A'\	8ff#'\	f
(8D#\L	16a/LL	p
.	16ccn/JJ	.
8F#\	16b/LL	.
.	16a#/	.
8B\J)	16b/	.
.	16f#/JJ	.
=137	=137	=137
8A'\	8ff#'\	.
(8D#\L	16an/LL	p
.	16ccn/JJ	.
8F#\	16b/LL	.
.	16a#/	.
8B\J)	16b/	.
.	16f#/JJ	.
=138	=138	=138
8A'\	8ff#'\	.
(8D#\L	(16an/LL	p
.	16ccn/JJ	.
8F#\	16b/LL	.
.	16a#/	.
[8B\J)	16b/	.
.	16an/JJ	.
=139	=139	=139
(16B\LL]	16g#/LL	.
16A\	16f#/	.
16B\	16g#/	.
16A\JJ	16f#/JJ	.
16G#\LL	16e/LL	.
16A\	16d#/	.
16G#\	16e/	.
16F#\JJ)	16f#/JJ)	.
=140	=140	=140
*	*^	*
8EE/ 8E/	(4g#/	16e\LL	.
.	.	16B\	.
8r	.	16e\	.
.	.	16B\JJ	.
4r	8b/L	16g#\LL	.
.	.	16B\	.
.	8a/J	16f#\	.
.	.	16B\JJ	.
=141	=141	=141	=141
8BBB/ 8BB/	8g#/L	16e\LL	.
.	.	16B\	.
8r	8f#/J	16d#\	.
.	.	16B\JJ)	.
4r	(8f#'/L	16d#\LL	.
.	.	16B\	.
.	8g#'/J)	16e\	.
.	.	16B\JJ	.
=142	=142	=142	=142
8CC#/ 8C#/	(8a/L	16e\LL	.
.	.	16B\	.
8r	8cc#/J	16e\	.
.	.	16B\JJ	.
8DD#/ 8D#/L	8b/L	16f#\LL	.
.	.	16B\	.
8BBB/ 8BB/J	8f#/J	16d#\)	.
.	.	16B\JJ	.
*	*v	*v	*
=143	=143	=143
16EE\ 16E\LL	4B/ 4e/ 4g#/	.
16G#\	.	.
16B\	.	.
16A\JJ	.	.
16G#\LL	8r	.
16A\	.	.
16G#\	(16ee\LL	.
16F#\JJ	16ff#\JJ	.
=144	=144	=144
16E\LL	4g#\ 4gg#\	.
16B\	.	.
16BB\	.	.
16B\JJ	.	.
16E\LL	8b\ 8bb\L	.
16B\	.	.
16BB\	8a\ 8aa\J	.
16B\JJ	.	.
=145	=145	=145
16D#\LL	8g#\ 8gg#\L	.
16B\	.	.
16BB\	8f#\ 8ff#\J)	.
16B\JJ	.	.
16D#\LL	8f#'\ (8ff#'\L	.
16B\	.	.
16E#\	8g#'\ 8gg#'\J)	.
16B\JJ	.	.
=146	=146	=146
16F#\LL	8a\ (8aa\L	<
16B\	.	.
16A\	8cc#\ 8ccc#\	.
16B\JJ	.	.
16G#\LL	8b\ 8bb\J)	.
16B\	.	.
16BB\ 16F#\	8dd#'\ 8ddd#'\	p
16A\JJ	.	.
=147	=147	=147
16E\ 16G#\LL	4ee\ 4eee\	.
16B\	.	.
16G#\	.	.
16E\JJ	.	.
16D#\LL	8r	.
16B\	.	.
16F#\	(8b\	.
16D#\JJ	.	.
=148	=148	=148
16C#\LL	4a#\	.
16A#\	.	.
16F#\	.	.
16C#\JJ	.	.
16FF#\LL	4ee\	.
16A#\	.	.
16F#\	.	.
16C#\JJ	.	.
=149	=149	=149
16BB\LL	4.dd#\)	.
16B\	.	.
16F#\	.	.
16D#\JJ	.	.
16BB\LL	.	.
16B\	.	.
16C#\	(8an/	.
16An\JJ	.	.
=150	=150	=150
16BB\LL	4g#/	.
16G#\	.	.
16E\	.	.
16BB\JJ	.	.
16EE\LL	4ddn\	.
16G#\	.	.
16E\	.	.
16BB\JJ	.	.
=151	=151	=151
16AA\LL	4.cc#\)	.
16A\	.	.
16E\	.	.
16C#\JJ	.	.
16AA\LL	.	.
16E\	.	.
16AA\	(8cc#\	<
16E\JJ	.	.
=152	=152	=152
16GG#\LL	8b#\L	.
16E\	.	.
16AA\	8cc#\J)	.
16E\JJ	.	.
16AA\LL	(8c#'/ 8e'/ 8a'/L	.
16E\	.	.
16BB\	8Bn'/) 8e'/ 8g#'/J	.
16E\JJ	.	.
=153	=153	=153
*	*^	*
16C#\LL	8g#/	4A#\ 4e\	.
16E\	.	.	.
16C#\	4f#/	.	.
16E\JJ	.	.	.
16Cn\LL	.	4An\ 4e\	.
16E\	.	.	.
16C\	(8f#/	.	.
16E\JJ	.	.	.
=154	=154	=154	=154
16BB\LL	8f#/L	8A\ 8d#\	p
16F#\	.	.	.
16BB\	8b/	4d#\	.
16F#\ 16A\JJ	.	.	.
16BB\LL	8a#/	.	.
16F#\ 16A\	.	.	.
16BB\	8b/J	8d#\	.
16F#\ 16A\JJ	.	.	.
*	*v	*v	*
=155	=155	=155
16E\ 16G#\LL	4e/)	.
16B\	.	.
16G#\	.	.
16E\JJ	.	.
16D#\LL	8r	.
16B\	.	.
16F#\	8b\ (8bb\	.
16D#\JJ	.	.
=156	=156	=156
16C#\LL	4a#\ 4aa#\	.
16A#\	.	.
16F#\	.	.
16C#\JJ	.	.
16FF#\LL	4ee\ 4eee\	.
16A#\	.	.
16F#\	.	.
16C#\JJ	.	.
=157	=157	=157
16BB\LL	4.dd#\ 4.ddd#\)	.
16B\	.	.
16F#\	.	.
16D#\JJ	.	.
16BB\LL	.	.
16B\	.	.
16C#\	8an\ (8aan\	.
16An\JJ	.	.
=158	=158	=158
16BB\LL	4g#\ 4gg#\	.
16G#\	.	.
16E\	.	.
16BB\JJ	.	.
16EE\LL	4ddn\ 4dddn\	.
16G#\	.	.
16E\	.	.
16BB\JJ	.	.
=159	=159	=159
16AA\LL	4.cc#\ 4.ccc#\)	.
16A\	.	.
16E\	.	.
16C#\JJ	.	.
16AA\LL	.	.
16E\	.	.
16AA\	8cc#\ (8ccc#\	<
16E\JJ	.	.
=160	=160	=160
16GG#\LL	8b#\ 8bb#\L	.
16E\	.	.
16AA\	8cc#\ 8ccc#\)	.
16E\JJ	.	.
16AA\ 16C#\LL	8a'\ (8aa'\	.
16E\	.	.
16BB\ 16E\	8g#'\ 8gg#'\J)	.
16G#\JJ	.	.
=161	=161	=161
16C#\ 16E\LL	8g#\ (8gg#\	.
16A#\	.	.
16C#\ 16E\	4f#\ 4ff#\)	.
16A#\JJ	.	.
16Cn\ 16E\LL	.	.
16An\	.	.
16C\ 16E\	8f#\ (8ff#\	.
16A\JJ	.	.
=162	=162	=162
16BB\ 16D#\LL	8f#\ 8ff#\L	p
16A\	.	.
16BB\ 16D#\	8b\ 8bb\	.
16A\JJ	.	.
16BB\ 16D#\LL	8a#\ 8aa#\	.
16A\	.	.
16BB\ 16D#\	8b\ 8bb\J	.
16A\JJ	.	.
=163	=163	=163
16E\ 16G#\LL	4e\ 4ee\)	.
16E\	.	.
16D#\	.	.
16C#\JJ	.	.
16BB/LL	8r	.
16AA/	.	.
16GG#/	(16e/LL	.
16FF#/JJ	16f#/JJ	.
=164	=164	=164
*	*^	*
8EE/	4g#/	16e\LL	.
.	.	16B\	.
8r	.	16e\	.
.	.	16B\JJ	.
4r	8b/L	16g#'\LL	.
.	.	16B\	.
.	8a/J	16f#\	.
.	.	16B\JJ	.
=165	=165	=165	=165
8BBB'/ 8BB'/	8g#/L	16e'\LL	.
.	.	16B\	.
8r	8f#/J)	16d#\	.
.	.	16B\JJ	.
4r	(8f#'/L	16d#\LL	.
.	.	16B\	.
.	8g#'/J)	16e\	.
.	.	16B\JJ	.
=166	=166	=166	=166
8CC#'/ 8C#'/	(8a/L	16e\LL	.
.	.	16B\	.
8r	8cc#/J	16e\	.
.	.	16B\JJ	.
8DD#'/ 8D#'/L	8b/L	16f#\LL	.
.	.	16B\	.
8BBB'/ 8BB'/J	8f#/J)	16d#\	.
.	.	16B\JJ	.
*	*v	*v	*
=167	=167	=167
8EE'/	8B/ 8e/ 8g#/	.
*clefG2	*	*
16e/LL	8r	.
16B/JJ	.	.
.	ff#q/	.
16e/LL	(16ee\LL	<
16B/	16dd#\	.
16e/	16ee\	.
16B/JJ	16ff#\JJ	.
=168	=168	=168
.	aaq/	.
16e/LL	16gg#\LL	.
16B/	16ff#\	.
16e/	16gg#\	.
16B/JJ	16aa\JJ	.
16g#/LL	8b\ 8bb\L	>
16B/	.	.
16f#/	8a\ 8aa\J	.
16B/JJ	.	.
=169	=169	=169
16e/LL	8g#\ 8gg#\L	<
16B/	.	.
16d#/	8f#\ 8ff#\J)	.
16B/JJ	.	.
16d#/LL	8f#'\ (8ff#'\L	.
16B/	.	.
16e#/	8g#'\ 8gg#'\J)	.
16B/JJ	.	.
=170	=170	=170
16f#/LL	8a\ (8aa\L	.
16B/	.	.
16a/	8cc#\ 8ccc#\	.
16B/JJ	.	.
16g#/LL	8b\ 8bb\J)	.
16B/	.	.
16f#/	8dd#'\ 8aa'\ 8ddd#'\	f
16B/JJ	.	.
*clefF4	*	*
=171	=171	=171
16e\LL	4ee'\ 4gg#'\ 4eee'\	.
16B\	.	.
16G#\	.	.
16B\JJ	.	.
8E\	8r	.
8r	8e'/ 8g#'/	f
=172	=172	=172
16c#\LL	4.e/ 4.g#/	.
16G#\	.	.
16E\	.	.
16G#\JJ	.	.
8C#\	.	.
8c#'\	8e'/ 8g#'/ 8ee'/	p
=173	=173	=173
16B#\LL	4.d#/ 4.f#/ 4.g#/ 4.dd#/	.
16G#\	.	.
16D#\	.	.
16G#\JJ	.	.
8BB#/	.	.
8B#'\	8d#'/ 8g#'/	f
=174	=174	=174
16Bn\LL	4.dn/ 4.e/ 4.g#/	f
16G#\	.	.
16E\	.	.
16G#\JJ	.	.
8BBn/	.	.
8B'\	8d'/ 8e'/ 8ddn'/	p
=175	=175	=175
16A\LL	4.c#/ 4.e/ 4.cc#/	.
16E\	.	.
16C#\	.	.
16E\JJ	.	.
8AA/	.	.
8A'\	8c#'/	f
=176	=176	=176
16G#\LL	4.B/ 4.c#/	.
16E#\	.	.
16C#\	.	.
16E#\JJ	.	.
8GG#/	.	.
8G#'\	8B'/ 8c#'/ 8b'/	p
=177	=177	=177
16F#\LL	4.A/ 4.c#/ 4.a/	.
16C#\	.	.
16AA\	.	.
16C#\JJ	.	.
8FF#/	.	.
8f#'\	8cc#'\ 8ff#'\ 8aa'\	.
=178	=178	=178
16d#\LL	4.b\ 4.ff#\ 4.aa\	.
16B\	.	.
16F#\	.	.
16B\JJ	.	.
8D#\	.	.
8D#'\	8f#'/ 8a'/	f
=179	=179	=179
16Cn/LL	4.e/ 4.a/	.
16AA/	.	.
16EE/	.	.
16AA/JJ	.	.
8CCn/	.	.
8C'\ 8cn'\	8a'\ 8ee'\ 8aa'\	.
=180	=180	=180
8BB'\ 8B'\	8a'\ 8dd#'\ 8ff#'\ 8aa'\	p
*clefG2	*	*
(16b\LL	8r	.
16cc#\JJ	.	.
16b\LL	4r	.
16cc#\	.	.
16b\	.	.
16cc#\JJ)	.	.
=181	=181	=181
*^	*	*
16b/LL	(4.d#\ 4.f#\	4.aa\ (4.fff#\	p
16cc#/	.	.	.
16b/	.	.	.
16cc#/JJ	.	.	.
16b/LL	.	.	.
16cc#/	.	.	.
16b/	8e\) 8g#\	8gg#\ 8eee\)	.
16cc#/JJ	.	.	.
=182	=182	=182	=182
16b/LL	(8e\ 8g#\L	8gg#\ (8eee\L	>
16cc#/	.	.	.
16b/	8a\J)	8ff#\ 8ddd#\)	.
16cc#/JJ	.	.	.
16b/LL	(8f#\ 8a\L	8ff#\ (8ddd#\	.
16cc#/	.	.	.
16b/	8e\ 8g#\J	8gg#\ 8eee\J	.
16cc#/JJ	.	.	.
=183	=183	=183	=183
16b/LL	4.d#\) 4.f#\	4.aa\ 4.fff#\)	<
16cc#/	.	.	.
16b/	.	.	.
16cc#/JJ	.	.	.
16b/LL	.	.	.
16cc#/	.	.	.
16b/	(8e\ 8g#\	8gg#\ (8eee\	.
16cc#/JJ	.	.	.
=184	=184	=184	=184
16b/LL	8f#\ 8a\L	8ff#\ 8ddd#\L	>
16cc#/	.	.	.
16b/	8d#\ 8f#\J	8aa\ 8fff#\	.
16cc#/JJ	.	.	.
16b/LL	8e\ 8g#\L	8gg#\ 8eee\	.
16cc#/	.	.	.
16b/	8f#\) 8a\J	8ff#\ 8ddd#\J)	.
16cc#/JJ	.	.	.
*v	*v	*	*
=185	=185	=185
16g#\ 16b\LL	8ee\ (8eee\L	pp
16ee\	.	.
16b\	8ddd#\	.
16ee\JJ	.	.
16a\LL	8ccc#\	.
16ee\	.	.
16g#\	8bb\J	.
16ee\JJ	.	.
=186	=186	=186
16a\LL	8ccc#\L	.
16ee\	.	.
16b\	8bb\	.
16ee\JJ	.	.
16cc#\LL	8aa\	.
16ee\	.	.
16a#\	8gg#\J)	.
16ee\JJ	.	.
=187	=187	=187
*^	*	*
16b/LL	2b\	(4.gg#\	.
16cc#/	.	.	.
16dd#/	.	.	.
16ee/JJ	.	.	.
16dd#/LL	.	.	.
16ee/	.	.	.
16ff#/	.	16aa\LL	.
16gg#/JJ	.	16bb\JJ)	.
=188	=188	=188	=188
8dd#/	8b\	8ff#\	.
*v	*v	*	*
*clefF4	*	*
*^	*	*
(16c#/LL	8r	(16b\LL	.
16B/JJ	.	16cc#\JJ	.
16c#/LL	4r	16b\LL	.
16B/	.	16cc#\	.
16c#/	.	16b\	.
16B/JJ)	.	16cc#\JJ)	.
=189	=189	=189	=189
*	*	*^	*
16c#/LL	(4.D#\ 4.F#\	4.ff#/ (4.aa/	16b\LL	.
16B/	.	.	16cc#\	<
16c#/	.	.	16b\	.
16B/JJ	.	.	16cc#\JJ	.
16c#/LL	.	.	16b\LL	.
16B/)	.	.	16cc#\	.
16c#/	8E\ 8G#\	8ee/ 8gg#/)	16b\	.
16B/JJ	.	.	16cc#\JJ	.
=190	=190	=190	=190	=190
16c#/LL	8E\ 8G#\L	8ee/ 8gg#/L	16b\LL	>
16B/	.	.	16cc#\	.
16c#/	8F#\ 8A\J	8dd#/ 8ff#/J	16b\	.
16B/JJ	.	.	16cc#\JJ	.
16c#/LL	8F#\L	8dd#/ 8ff#/L	16b\LL	.
16B/	.	.	16cc#\	.
16c#/	8E\ 8G#\J	8ee/ 8gg#/J	16b\	.
16B/JJ	.	.	16cc#\JJ	.
=191	=191	=191	=191	=191
16c#/LL	(4.D#\ 4.F#\	4.ff#/ (4.aa/	16b\LL	<
16B/	.	.	16cc#\	.
16c#/	.	.	16b\	.
16B/JJ	.	.	16cc#\JJ	.
16c#/LL	.	.	16b\LL	.
16B/	.	.	16cc#\	.
16c#/	8E\) 8G#\	8ee/ 8gg#/)	16b\	.
16B/JJ	.	.	16cc#\JJ	.
=192	=192	=192	=192	=192
16A/LL	(8F#\L	(8ff#/L	16dd#\LL	.
16B/	.	.	16b\	.
16D#/	8BB\	8ccc#/	16aa\	.
16B/JJ	.	.	16b\JJ	.
16E/LL	8C#\	8bb/	16gg#\LL	.
16B/	.	.	16b\	.
16F#/	8D#\J	8aa/J	16ff#\	.
16B/JJ	.	.	16b\JJ	.
=193	=193	=193	=193	=193
16G#/LL	8E\L	8gg#/L	16ee\LL	>
16B/	.	.	16b\	.
16E/	8C#\	8bb/	16gg#\	.
16B/JJ	.	.	16b\JJ	.
16F#/LL	8D#\	8aa/	16ff#\LL	.
16B/	.	.	16b\	.
16G#/	8E\J	8gg#/J	16ee\	.
16B/JJ	.	.	16b\JJ	.
=194	=194	=194	=194	=194
16A/LL	8F#\L	8ff#/L	16dd#\LL	.
16B/	.	.	16b\	.
16F#/	8D#\	8aa/	16ff#\	.
16B/JJ	.	.	16b\JJ	.
16G#/LL	8E\	8gg#/	16ee\LL	.
16B/	.	.	16b\	.
16A/	8F#\J	8ff#/J	16dd#\	.
16d#/JJ	.	.	16a\JJ	.
*v	*v	*	*	*
=195	=195	=195	=195
16G#\LL	8ee/L	16b\LL	.
16B\	.	16g#\	.
16G#\	8ddn/	16b\	.
16B\JJ	.	16e#\JJ	.
16G#\LL	8cc#/	16b\LL	.
16B\	.	16e#\	.
16G#\	8cc#/J	16b\	.
16B\JJ	.	16e#\JJ	.
*	*v	*v	*
=196	=196	=196
8G#\) 8B\	16e#/ 16cc#/)	.
.	(16cc#\LL	pp
8r	16dd#\	.
.	16ee#\JJ	.
*clefG2	*	*
.	gg#q/	.
16r	16ff#\LL	.
(16c#/LL	16ee#\	.
16d#/	16ff#\	.
16e#/JJ	16gg#\JJ	.
=197	=197	=197
16f#/LL)	16aa\LL)	.
(16c#/	(16ee#\	.
16d#/	16ff#\	.
16e#/JJ	16gg#\JJ	.
g#q/	bbq/	.
16f#/LL	16aa\LL	.
16e#/	16gg#\	.
16f#/	16aa\	.
16g#/JJ	16bb\JJ	.
=198	=198	=198
16a/LL)	16ccc#\LL)	.
(16g#/	(16bb\	.
16a/	16aa\	.
16b/JJ	16gg#\JJ	.
16cc#/LL	16aa\LL	.
16b/	16gg#\	.
16a/	16ff#\	.
16a#/JJ	16ccc#\JJ)	.
=199	=199	=199
8b/)	(16gg#\LL	.
.	16ff#\	.
8r	16een\	.
.	16bb\JJ	.
8B/	16ff#\LL	.
.	16ee\	.
8r	16dd#\	.
.	16bb\JJ)	.
*clefF4	*	*
=200	=200	=200
12E\L	2b\ 2gg#\ (2bb\	.
12B\	.	.
12G#\J	.	.
12E\L	.	.
12e\	.	.
12B\J	.	.
=201	=201	=201
12F#\L	4a\ 4ff#\ 4aa\	.
12d#\	.	.
12B\J	.	.
12G#\L	4b\ 4ee\ 4gg#\	.
12e\	.	.
12B\J	.	.
=202	=202	=202
12A\L	4cc#\ 4ff#\	.
12f#\	.	.
12c#\J	.	.
12A#\L	4cc#\ [4ee\	.
12gn\	.	.
12e\J	.	.
=203	=203	=203
*	*^	*
12B\L	4ee/]	4b\	.
12g#\	.	.	.
12e\J	.	.	.
12An\L	8dd#/L	4b\	.
12f#\	.	.	.
.	8bb/J)	.	.
12d#\J	.	.	.
*	*v	*v	*
=204	=204	=204
16G#\LL	2b\ 2ddn\ (2bb\	<
16e\	.	.
16B\	.	.
16G#\JJ	.	.
16E\LL	.	.
16B\	.	.
16G#\	.	.
16E\JJ	.	.
=205	=205	=205
16F#\LL	4a\ 4ddn\ 4aa\	.
16dn\	.	.
16A\	.	.
16F#\JJ	.	.
16G#\LL	4g#\ 4b\ 4dd\ 4gg#\	.
16e\	.	.
16B\	.	.
16G#\JJ	.	.
=206	=206	=206
16A\LL	4ddn\ 4ff#\	.
16f#\	.	.
16dn\	.	.
16A\JJ	.	.
16B\LL	4dd\ 4ee\	.
16g#\	.	.
16d\	.	.
16B\JJ	.	.
=207	=207	=207
16G#\LL	4b\ 4ddn\ 4ee\)	.
16dn\	.	.
16B\	.	.
16G#\JJ	.	.
16Fn\LL	4dd\ 4dddn\	f
16d\	.	.
16B\	.	.
16G#\JJ	.	.
=208	=208	=208
16Fn\LL	2ddn\ 2dddn\	.
16dn\	.	.
16B\	.	.
16A-\JJ	.	.
16F\LL	.	.
16d\	.	.
16B\	.	.
16A-\JJ	.	.
=209	=209	=209
*k[]	*k[]	*k[]
16D\LL	2ff\ 2fff\	.
16B\	.	.
16A-\	.	.
16F\JJ	.	.
16D\LL	.	.
16B\	.	.
16A-\	.	.
16F\JJ	.	.
=210	=210	=210
16BB\LL	16ff\ 16fff\	f
16A-\	16f\LL	.
16F\	16b\	.
16D\JJ	16dd\JJ	.
16BB\LL	16ff\LL	>
16A-\	16bb\	.
16F\	16ddd\	.
16D\JJ	16bb\JJ	.
=211	=211	=211
16BB\LL	4fff\	p
16G\	.	.
16F\	.	.
16D\JJ	.	.
16BB\LL	8r	.
16G\	.	.
16BB\	8ee\	>
16G\JJ	.	.
=212	=212	=212
4BB\ 4G\	8ff\L	pp
.	8aa-\	.
*clefG2	*	*
8r	8gg\	.
8g/	8dd\J	.
=213	=213	=213
*^	*	*
8g/L	4r	8ee\L	.
8a-/	.	8ff\	.
8g/	8r	8ee\	.
8d/J	8G\	8b\J	.
*v	*v	*	*
*clefF4	*	*
=214	=214	=214
*^	*^	*
4.r	8G\L	4cc/	2e\	.
.	8B-\	.	.	.
.	8A\	4cc#/	.	.
8G/	8E\J	.	.	.
*v	*v	*	*	*
=215	=215	=215	=215
8F\ 8A\L	4dd/	4d\	.
8G\ 8B-\	.	.	.
8F\ 8A\	[4aa/	4r	.
8C#\ 8E\J	.	.	.
*	*v	*v	*
=216	=216	=216
8D\ 8F\	8aa\L]	.
4d\ 4f\	8bb-\	.
.	8aa\	.
[8c\ [8e-\	8ff\J	.
=217	=217	=217
8c\] 8e-\L]	8bb-\L	pp
8B-\ (8d-\	8ff\	.
8A#\ 8c#\)	8ee#\	.
[8G#\ [8Bn\J	8cc#\J	.
=218	=218	=218
*k[f#c#g#d#]	*k[f#c#g#d#]	*k[f#c#g#d#]
8G#\] 8B\]	(8ff#\L	.
4F#\ 4A#\	8cc#\	.
.	8cc#\	.
[8F#\ [8A#\	8a#\J)	.
=219	=219	=219
8F#\] 8A#\]	(8aa#\L	.
4F#\ 4A#\	8ff#\	.
.	8ff#\	.
[8F#\ [8A#\	8cc#\J)	.
=220	=220	=220
8F#\] 8A#\]	(8ccc#\L	<
4F#\ 4An\ 4c#\	8aan\	.
.	8aa\	.
[8E\ [8F#\ [8A\ [8cn\	8ff#\J)	.
=221	=221	=221
8E\] 8F#\] 8A\] 8c\L]	(8cccn\L	.
8D#\ 8F#\ 8A\ 8B\J	8ff#\	.
16D#\LL	8bb\	f
16B\	.	.
16D#\	16ff#\Jk)	.
16E\JJ	16r	.
=222	=222	=222
16F#\LL	4r	.
16B\	.	.
16F#\	.	.
16G#\JJ	.	.
16A\LL	16dd#\LL	f
16B\	16bb\	.
16A\	16dd#\	.
16G#\JJ	16ee\JJ	.
=223	=223	=223
16F#\LL	16ff#\LL	.
16B\	16bb\	.
16F#\	16ff#\	.
16E\JJ	16gg#\JJ	.
16D#\LL	16aa\LL	.
16B\	16bb\	.
16D#\	16aa\	.
16E\JJ	16gg#\JJ	.
=224	=224	=224
16F#\LL	16ff#\LL	.
16B\	16bb\	.
16F#\	16ff#\	.
16G#\JJ	16ee\JJ	.
16A\LL	16dd#\LL	>
16B\	16bb\	.
16A\	16dd#\	.
16G#\JJ	16ee\JJ	.
=225	=225	=225
16F#\LL	16ff#\LL	.
16B\	16bb\	.
16F#\	16ff#\	.
16E\JJ	16gg#\JJ	.
16D#\LL	16aa\LL	.
16B\	16bb\	.
16D#\	16aa\	.
16E\JJ	16gg#\JJ	.
=226	=226	=226
16F#\LL	16ff#\LL	.
16B\	16bb\	.
16F#\	16ff#\	.
16G#\JJ	16ee\JJ	.
16A\LL	16dd#\LL	p
16B\	16bb\	.
16A\	16dd#\	.
16G#\JJ	16ee\JJ	.
=227	=227	=227
16F#\LL	16ff#\LL	.
16B\	16bb\	.
16F#\	16ff#\	.
16E\JJ	16gg#\JJ	.
16D#\LL	16aa\LL	p
16B\	16bb\	.
16D#\	16aa\	.
16E\JJ	16gg#\JJ	.
=228	=228	=228
16F#\LL	16ff#\LL	.
16B\	16bb\	.
16F#\	16ff#\	.
16G#\JJ	16ee\JJ	.
16A\LL	16dd#\LL	.
16G#\	16ee\	.
16A\	16dd#\	.
16A#\JJ	16cc#\JJ	.
=229	=229	=229
16B\LL	16b/LL	pp
16A#\	16cc#/	.
16An\	16d#/	.
16G#\JJ	16e/JJ	.
16F#\LL	16f#/LL	.
16BB\ 16D#\	16a/	.
16C#\ 16E\	16g#/	.
16D#\ 16F#\JJ	16f#/JJ	.
=230	=230	=230
*^	*	*
4r	8E\ 8G#\	16g#/LL	p
.	.	16b/	.
.	8r	16B/	.
.	.	16b/JJ	.
8B/L	4r	16g#/LL	.
.	.	16b/	.
8A/J	.	16f#/	.
.	.	16b/JJ	.
=231	=231	=231	=231
8G#/L	8BB\	16e/LL	.
.	.	16b/	.
8F#/	8r	16d#/	.
.	.	16b/JJ	.
(8F#/	4r	16d#/LL	.
.	.	16b/	.
8G#'/J)	.	16e#/	.
.	.	16b/JJ	.
=232	=232	=232	=232
(8A/L	4BB\	16f#/LL	.
.	.	16b/	.
8c#/	.	16a/	.
.	.	16b/JJ	.
8B/	8BB\L	16g#/LL	.
.	.	16b/	.
8F#/J)	8AA\J	16b/	.
.	.	16dd#/JJ	.
*v	*v	*	*
=233	=233	=233
8GG#\ 8G#\	16b\LL	.
.	16ee\	.
8r	16b\	.
.	16ff#\JJ	.
4r	16b\LL	.
.	16ff##\	.
.	16b\	.
.	16gg#\JJ	.
=234	=234	=234
*	*^	*
16E\LL	(4gg#/	16b\LL	.
16e\	.	16ee\	.
16E\	.	16b\	.
16e\JJ	.	16ee\JJ	.
16C#\LL	8bb/L	16ee\LL	.
16c#\	.	16a\	.
16AA\	8aa/J	16cc#\	.
16A\JJ	.	16ee\JJ	.
=235	=235	=235	=235
16BB\LL	8gg#/L	16ee\LL	.
16B\	.	16b\	.
16BB\	8ff#/J)	16dd#\	.
16B\JJ	.	16b\JJ	.
16A\LL	(8ff#/L	16dd#\LL	.
16a\	.	16b\	.
16G#\	8gg#'/J)	16ee\	.
16g#\JJ	.	16b\JJ	.
=236	=236	=236	=236
16F#\LL	8aa/L	16ff#\LL	<
16f#\	.	16b\	.
16E\	8ccc#/	16gg#\	.
16e\JJ	.	16b\JJ	.
16D#\LL	8bb/J	16ff#\LL	.
16d#\	.	16b\JJ	.
16BB\	8r	8ff#'\ 8aa'\ 8ddd#'\	f
16B\JJ	.	.	.
*	*v	*v	*
=237	=237	=237
4E\ 4e\	16ee'\ 16gg#'\ 16eee'\	p
.	(16ee\LL	.
.	16b\	.
.	16g#\JJ	.
8r	16b\LL	.
.	16g#\	.
8D#\ (8B\	16f#\	.
.	16dd#\JJ)	.
=238	=238	=238
4C#\ 4A#\	16f#/LL	.
.	16ee/	.
.	16cc#/	.
.	16f#/JJ	.
4A#\ 4e\	16f#/LL	.
.	16ff#/	.
.	16cc#/	.
.	16f#/JJ	.
=239	=239	=239
4B\ 4d#\)	16f#/LL	.
.	16dd#/	.
.	16b/	.
.	16f#/JJ	.
8BB\ (8B\L	16d#/LL	.
.	16b/	.
8C#\ 8An\J	16e/	.
.	16an/JJ	.
=240	=240	=240
4Dn\ 4G#\	16e/LL	.
.	16b/	.
.	16g#/	.
.	16e/JJ	.
4G#\ 4dn\	16e/LL	.
.	16ee/	.
.	16b/	.
.	16e/JJ	.
=241	=241	=241
4.A\ 4.c#\)	16e/LL	.
.	16ee/	.
.	16cc#/	.
.	16a/JJ	.
.	16e/LL	<
.	16ee/	.
8A\ (8c#\	16e/	.
.	16ee/JJ	.
=242	=242	=242
8G#\ 8B#\L	16e/LL	.
.	16ee/	.
8A\ 8c#\J)	16e/	.
.	16ee/JJ	.
8C#\ (8A\L	16e/LL	.
.	16ee/	.
8BBn'\ 8G#'\J)	16e/	.
.	16ee/JJ	.
=243	=243	=243
8BB\ (8G#\	16e/LL	.
.	16ee/	.
4AA#\ 4F#\)	16e/	.
.	16ee/JJ	.
.	16e/LL	.
.	16ee/	.
8AA#\ 8F#\	16e/	.
.	16ee/JJ	.
=244	=244	=244
*^	*	*
(8F#/L	2BB\	16d#/LL	p
.	.	16dd#/	.
8B/	.	16b/	.
.	.	16f#/JJ	.
8A#/	.	16f#/LL	.
.	.	16ff#/	.
8B/J)	.	16dd#/	.
.	.	16a/JJ	.
*v	*v	*	*
=245	=245	=245
16E\LL	4g#/	.
16B\	.	.
16G#\	.	.
16E\JJ	.	.
16D#\LL	8r	.
16B\	.	.
16F#\	8b\ (8bb\	.
16D#\JJ	.	.
=246	=246	=246
16C#\LL	4a#\ 4aa#\	.
16A#\	.	.
16F#\	.	.
16C#\JJ	.	.
16FF#\LL	4ee\ 4eee\	.
16A#\	.	.
16F#\	.	.
16C#\JJ	.	.
=247	=247	=247
16BB\LL	4.dd#\ 4.ddd#\)	.
16B\	.	.
16F#\	.	.
16D#\JJ	.	.
16BB\LL	.	.
16B\	.	.
16C#\	8an\ (8aan\	.
16An\JJ	.	.
=248	=248	=248
16BB\LL	4g#\ 4gg#\	.
16G#\	.	.
16E\	.	.
16BB\JJ	.	.
16EE\LL	4ddn\ 4dddn\	.
16G#\	.	.
16E\	.	.
16BB\JJ	.	.
=249	=249	=249
16AA\LL	4.cc#\ 4.ccc#\)	.
16A\	.	.
16E\	.	.
16C#\JJ	.	.
16AA\LL	.	.
16E\	.	.
16AA\	8cc#\ (8ccc#\	.
16E\JJ	.	.
=250	=250	=250
16GG#\LL	8b#\ 8bb#\L	<
16E\	.	.
16AA\	8cc#\ 8ccc#\J)	.
16E\JJ	.	.
16AA\ 16C#\LL	8a'\ (8aa'\L	.
16E\	.	.
16BB\ 16E\	8g#'\ 8gg#'\J)	.
16G#\JJ	.	.
=251	=251	=251
16C#\ 16E\LL	8g#\ (8gg#\	.
16A#\	.	.
16C#\ 16E\	4f#\ 4ff#\)	.
16A#\JJ	.	.
16Cn\ 16E\LL	.	.
16An\	.	.
16C\ 16E\	8f#\ 8ff#\	.
16A\JJ	.	.
=252	=252	=252
16BB\LL	8f#\ (8ff#\L	.
16D#\ 16F#\ 16A\	.	.
16BB\	8b\ 8bb\	.
16D#\ 16F#\ 16A\JJ	.	.
16BB\LL	8a#\ 8aa#\	.
16D#\ 16F#\ 16A\	.	.
16BB\	8b\ 8bb\J)	.
16D#\ 16F#\ 16A\JJ	.	.
=253	=253	=253
16BB\LL	8e\ (8ee\L	.
16E\ 16G#\	.	.
16BB\	8b\ 8bb\	.
16E\ 16G#\JJ	.	.
16BB\LL	8a#\ 8aa#\	.
16E\ 16G#\	.	.
16BB\	8b\ 8bb\J)	.
16E\ 16G#\JJ	.	.
=254	=254	=254
*^	*	*
(8F#/L	2BB\ 2F#\	16r	.
.	.	16dd#\LL	.
8B/	.	16bb\	.
.	.	16aa\JJ	.
8A#/	.	16ff#\LL	.
.	.	16dd#\	.
8B/J)	.	16b\	.
.	.	16an\JJ	.
=255	=255	=255	=255
(8E/L	2BB\ 2E\	16r	.
.	.	16g#\LL	.
8B/	.	16bb\	.
.	.	16gg#\JJ	.
8A#/	.	16ee\LL	.
.	.	16b\	.
8B/J)	.	16an\	.
.	.	16g#\JJ	<
*v	*v	*	*
=256	=256	=256
16BB\LL	8f#\ (8ff#\L	.
16D#\ 16F#\ 16A\	.	.
16BB\	8b\ 8bb\	.
16D#\ 16F#\ 16A\JJ	.	.
16BB\LL	8a#\ 8aa#\	.
16D#\ 16F#\ 16A\	.	.
16BB\	8b\ 8bb\J)	.
16D#\ 16F#\ 16A\JJ	.	.
=257	=257	=257
16BB\LL	8e#\ (8ee#\L	.
16Dn\ 16E#\ 16G#\	.	.
16BB\	8ddn\ 8dddn\	.
16D\ 16F#\ 16G#\JJ	.	.
16BB\LL	8cc#\ 8ccc#\	.
16D\ 16E#\ 16G#\	.	.
16BB\	8dd\ 8ddd\J)	.
16D\ 16E#\ 16G#\JJ	.	.
=258	=258	=258
16AA\LL	(8ccc#\L	.
16C#\ 16F#\	.	.
16AA\	8ff#\	.
16C#\ 16F#\JJ	.	.
16AA\LL	8aa\	.
16C#\ 16F#\	.	.
16AA\	8cc#\J)	.
16C#\ 16F#\JJ	.	.
=259	=259	=259
16AA#\LL	(8ff#\L	>
16C#\ 16En\ 16F#\	.	.
16AA#\	8cc#\	.
16C#\ 16E\ 16F#\JJ	.	.
16AA#\LL	8een\	.
16C#\ 16E\ 16F#\	.	.
16AA#\	8f#\J)	.
16C#\ 16E\ 16F#\JJ	.	.
=260	=260	=260
16BB\LL	(8b/L	.
16E\ 16G#\	.	.
16BB\	8g#/	.
16E\ 16G#\JJ	.	.
16BB\LL	8b/	.
16E\ 16G#\	.	.
16BB\	8e/J)	.
16E\ 16G#\JJ	.	.
=261	=261	=261
16BB\LL	(8d#/L	pp
16F#\	.	.
16BB\	8b/	.
16D#\JJ	.	.
16BB\LL	8d#/ 8f#/	.
16B\	.	.
16BB\	8d#/) 8b/J	.
16B\JJ	.	.
=262	=262	=262
4B\	16r	.
.	(16dn/LL	<
.	16g#/	.
.	16e#/JJ)	.
4A\	16r	.
.	(16c#/LL	.
.	16a/	.
.	16f#/JJ)	.
=263	=263	=263
4G#\ 4B\	16r	.
.	16b\LL	.
.	16bb\	.
.	(16gg#\JJ	.
4F#\ 4A\	16r	.
.	16cc#\LL	.
.	16ccc#\	.
.	16aa\JJ)	.
=264	=264	=264
8E#\ 8G#\	16r	.
.	16ddn\LL	f
8r	16dddn\	.
.	(16bb\JJ	.
8E#\ 8G#\	16r	.
.	16cc#\LL	.
8r	16ccc#\	.
.	16bb\JJ)	.
=265	=265	=265
*	*^	*
2r	2r	4r	.
.	.	8r	.
.	.	(16c#\LL	p
.	.	16d#\JJ	.
=266	=266	=266	=266
2A#\	2r	8en\L	.
.	.	8gn\	.
.	.	8f#\	.
.	.	8c#\J	.
=267	=267	=267	=267
[2B\	8ff#/L	[2d#\	p
.	8ccc#/	.	.
.	8bb/	.	.
.	8ff#/J	.	.
=268	=268	=268	=268
2B\]	[2aa/	8d#\L]	.
.	.	8f#\	.
.	.	8e\	.
.	.	8c#\J	.
=269	=269	=269	=269
[2B\	8aa/L]	[2e\	.
.	8aa/	.	.
.	8gg#/	.	.
.	8ee/J)	.	.
=270	=270	=270	=270
4.B\]	[2gg#/	(8e\L]	.
.	.	8e\	.
.	.	(8d#\)	.
8r	.	8B\J)	.
*	*v	*v	*
=271	=271	=271
(8d#\L	8gg#\L]	.
8A#\	8ee\ (8gg#\	.
8B\	8dd#\ 8ff#\	.
8d#\J	8b\ 8dd#\J	.
=272	=272	=272
*^	*	*
8B/L	4r	8dd#\ 8ff#\L)	.
8G#/	.	8b#\ (8ff#\	.
8A/	8BB\	8cc#\ 8ee\	.
8c#/J	8r	8a\ 8cc#\J	.
=273	=273	=273	=273
8A/L	4r	8cc#\ 8ee\L)	.
8F##/	.	8a#\ (8ee\	.
8G#/	8BB\	8b\ 8dd#\	.
8B/J	8r	8g#\ 8b\J	.
=274	=274	=274	=274
8G#/L	4r	8b/ 8ddn/L)	.
8E#/	.	(8g#/ 8dd/	.
8F#/	8BB\L	8a/ 8cc#/	.
8A/J	[8BB\J	8d#/ 8ccn/J	.
=275	=275	=275	=275
8G#/L	8BB\]	8e/ 8b/L	<
8E/J	4BB\	8c#/ 8b/J	.
16F#/LL)	.	16d#/ 16a/LL	.
16A/	.	16f#/)	.
16G#/	8BB\	(16e/	.
16F#/JJ	.	16f#/JJ	.
*v	*v	*	*
=276	=276	=276
*	*^	*
8EE/ 8E/	4g#/	16e\LL	p
.	.	16B\	.
8r	.	16e\	.
.	.	16B\JJ	.
4r	8b/L	16g#\LL	.
.	.	16B\	.
.	8a/J	16f#\	.
.	.	16B\JJ	.
=277	=277	=277	=277
8BBB/ 8BB/	8g#/L	16e\LL	.
.	.	16B\	.
8r	8f#/J)	16d#\	.
.	.	16B\JJ	.
4r	(8f#/L	16d#\LL	.
.	.	16B\	.
.	8g#/J)	16e\	.
.	.	16B\JJ	.
=278	=278	=278	=278
8CC#/ 8C#/	(8a/L	16e\LL	.
.	.	16B\	.
8r	8cc#/	16e\	.
.	.	16B\JJ	.
8DD#/ 8D#/L	8b/	16f#\LL	.
.	.	16B\	.
8BBB/ 8BB/J	8f#/J)	16d#\	.
.	.	[16B\JJ	.
=279	=279	=279	=279
4EE/ 4E/	4g#/	16B\LL]	.
.	.	16B\	.
.	.	16e\	.
.	.	16B\JJ	.
8r	8r	16e\LL	.
.	.	16B\	.
8BB/	(8g#/	16e\	.
.	.	16B\JJ	.
=280	=280	=280	=280
4C#/	8a/L	16e\LL	>
.	.	16B\	.
.	8cc#/	16e\	.
.	.	16B\JJ	.
8D#\L	8b/	16f#\LL	.
.	.	16B\	.
8BB\ 8A\J	8f#/J	16d#\	.
.	.	16B\JJ	.
*	*v	*v	*
=281	=281	=281
16E\ 16G#\LL	4.B/ 4.e/ 4.g#/)	.
16BB\	.	.
16E\ 16G#\	.	.
16BB\JJ	.	.
16E\ 16G#\LL	.	.
16BB\	.	.
16E#\ 16G#\	8g#\ (8gg#\	.
16BB\JJ	.	.
=282	=282	=282
16F#\ 16A\LL	8a\ 8aa\L	.
16BB\	.	.
16A\ 16c#\	8cc#\ 8ccc#\	.
16BB\JJ	.	.
16G#\ 16B\LL	8b\ 8bb\	.
16BB\	.	.
16F#\ 16A\	8dd#\ 8ddd#\J	.
16BB\JJ	.	.
=283	=283	=283
8E\ 8G#\	4ee\ 4eee\)	.
(8FF#/L	.	.
8EE/	4r	.
8C#/J	.	.
=284	=284	=284
*	*^	*
4.BB/	4r	8r	.
.	.	(8A\L	.
.	8r	8G#\	.
16C#/LL	8g#/	8e\J)	.
16BB/JJ	.	.	.
=285	=285	=285	=285
4AA#/)	8r	[8e\ 8f#\L	.
.	(8ff#/L	8e\] 8cc#\ 8ee\J	.
4A#\ 4e\ 4f#\	8ee/	4cc#\	.
.	8ccc#/J)	.	.
*	*v	*v	*
=286	=286	=286
8B\ 8e\ 8g#\	16ccc#\LL	.
.	16bb\	.
8r	16gg#\	.
.	16ee\JJ	.
8B\ 8f#\	16dd#\LL	.
.	16cc#\	.
8r	16b\	.
.	16a\JJ	.
=287	=287	=287
8c#\ 8e\	16g#\LL	.
.	16f#\	.
8r	16e\	.
.	16ee\JJ	.
8A\ 8c#\	16dd#\LL	.
.	16cc#\	.
8r	16ccc#\	.
.	16bb\JJ	.
=288	=288	=288
8F#\ 8A\	16bb\LL	.
.	16aa\	.
8r	16aaa\	.
.	16ggg#\JJ	.
8D#\ 8F#\	16ggg#\LL	.
.	16fff#\	.
8r	16aaa\	.
.	16fff#\JJ	.
=289	=289	=289
8B\ 8d#\	16eee\LL	.
.	16ddd#\	.
8r	16fff#\	.
.	16aa\JJ	.
8c#\ 8e\L	16aa\LL	p
.	16gg#\	.
8c#\ 8e\J	16eee\	.
.	16gg#\JJ	.
=290	=290	=290
8A\L	(16ff#\LL	pp
.	16ccc#\	.
8B\J	16bb\	.
.	16dd#\JJ)	.
8E\	8ee\	.
8r	8r	.
==	==	==
*-	*-	*-
!!!ENC: Craig Stuart Sapp
!!!END: 2008/07/17/
!!!EEV: 2014/07/13/ (added ottavas)
